X: 254
T: Whiskey Before Breakfast
M: 4/4
R: Reel
K: D
"D"DEFG A2 AA | ABAG FDEF |"G" G2 BG"D" F2 AF | "A"EDEF EDB,A, |
"D"DEFG A2 AA | ABAG FDEF |"G" G2 BG"D" F2 AF | "A"EDEF "D"D4  :|
|:"D"DFAcd2ef | gfed cBA2 | "Em"e2efe2ef | gfed "A"cABc |
"D"d2 fd "A"c2 ec | "G"BABc "D"BAFD |"G" G2 BG "D"F2 AF | "A"EDEF "D"D4 :|
